public/static/img/mina-wordmark.svg

<svg fill="none" height="36" viewBox="0 0 127 36" width="127" xmlns="http://www.w3.org/2000/svg" xmlns:xlink="http://www.w3.org/1999/xlink"><clipPath id="a"><path d="m0 0h126.735v36h-126.735z"/></clipPath><g clip-path="url(#a)" fill="#2d2d2d"><path d="m19.7016 35.9257c-.6628.0193-1.3078-.2159-1.803-.6574-.4951-.4414-.8029-1.0557-.8602-1.7169l-.2997-2.3514c-2.8544-.8143-4.5243-2.9286-4.9581-6.2857l-2.56904-19.81145c-.55108-.08877-1.10889-.12892-1.66699-.12-.82607-.00677-1.64917.09994-2.44626.31714v30.04571h-5.040937v-24.1514c0-3.27717 1.470037-5.59145 4.147497-6.55431v-1.55714c0-1.8 1.09325-3.0085746 2.71743-3.0085746s2.64321 1.0114246 2.90582 2.8571446l.19978 1.44286c2.9315.82 4.6442 3.17714 5.1523 7.00282l2.3749 19.0972c1.4189.2743 2.8771.2743 4.2959 0l2.3749-19.0943c.4967-3.82858 2.2293-6.18572 5.1523-7.0143l.1998-1.44285c.2626-1.83715 1.2959-2.8571457 2.9058-2.8571457s2.7174 1.2085757 2.7174 3.0085757v1.55714c2.6775.96286 4.1475 3.27714 4.1475 6.55428v24.1514h-5.0466v-30.03997c-.7971-.2172-1.6202-.32391-2.4463-.31714-.5581-.00892-1.1159.03123-1.667.12l-2.569 19.81431c-.4253 3.2971-2.1351 5.4628-4.9581 6.2857l-.2826 2.3543c-.0441.6686-.3501 1.2928-.8515 1.7369-.5013.4441-1.1575.6721-1.826.6345zm-2.0295-4.4971.2598 2.0257c.0272.4442.2283.8597.5596 1.1566.3312.2968.766.451 1.2101.4291.221.0159.4428-.0128.6525-.0843s.4029-.1844.5682-.332.2993-.3269.3941-.5273.1485-.4177.1578-.6393l.2598-2.0285c-1.345.2209-2.7169.2209-4.0619 0zm17.5291 3.0314h3.2484v-23.2657c0-2.77717-1.119-4.69431-3.2484-5.5886zm-34.253242 0h3.256912v-28.8543c-2.12655.89429-3.234076 2.81143-3.234076 5.5886zm9.208442-29.11144 2.5176 19.44854c.3597 2.8143 1.687 4.6343 3.942 5.4286l-2.3264-18.7371c-.4282-3.3029-1.784-5.32004-4.1332-6.14004zm19.0933 0c-2.3492.82-3.7107 2.83715-4.1332 6.14284l-2.3264 18.7229c2.2579-.7943 3.5824-2.6143 3.942-5.4286zm-24.14568-.99428c.8007-.19489 1.62224-.29085 2.44626-.28572.5153-.00544 1.03035.02511 1.54139.09143l-.15413-1.12286c-.19696-1.37714-.87632-2.074283-2.01524-2.074283s-1.81828.808573-1.81828 2.108573zm26.75178-.28572c.824-.00513 1.6456.09083 2.4463.28572v-1.27143c0-1.3-.6965-2.108574-1.8183-2.108574s-1.8183.697144-2.0152 2.074284l-.1542 1.12286c.5111-.06633 1.0261-.09688 1.5414-.09143z"/><path d="m53.264 35.3457h-4.9525v-34.691434h4.9525zm-4.0533-.9h3.1541v-32.89143h-3.1541z"/><path d="m85.3935 35.9257c-2.1494 0-2.6403-1.9628-2.8002-2.6086l-.3711-1.6457c-3.2169-.5714-5.1808-2.6485-5.9943-6.3314l-4.6613-20.26286c-.5331-.06683-1.0698-.09928-1.6071-.09715-.8921-.01447-1.7813.10594-2.6375.35715v29.99996h-5.0466v-24.2857c0-3.14283 1.4272-5.32855 4.1475-6.3514v-1.61715c0-1.8 1.0904-3.0085702 2.7146-3.0085702 1.4015 0 2.4319.8914282 2.7574 2.3828602l.4139 1.82857c3.1398.57143 5.0238 2.58857 5.9001 6.32859l4.7526 20.2657c.535.0667 1.0737.0992 1.6128.0971.8885.0069 1.7741-.1016 2.6346-.3228v-30.000019h5.0467v25.060019c0 2.5714-1.5043 4.5886-4.1475 5.58v1.5628c0 1.8972-1.039 3.0686-2.7146 3.0686zm-2.215-4.1114.2854 1.2943c.3397 1.36.8992 1.9171 1.9268 1.9171 1.1417 0 1.8154-.7857 1.8154-2.1571v-1.2915c-.8641.1979-1.7483.2938-2.6347.2858-.4652.001-.9301-.0218-1.3929-.0686v.0143zm-20.004 2.6314h3.2484v-28.77999c-2.158.93429-3.2484 2.74286-3.2484 5.38289zm9.354-29.19999 4.5671 19.89429c.7079 3.1857 2.2836 4.9714 4.8983 5.5686l-4.6585-19.8943c-.7593-3.23145-2.2521-4.97716-4.8069-5.56859zm15.5796-3.69143v28.78282c2.1008-.8914 3.2483-2.5114 3.2483-4.6114v-24.17142zm-20.7861 2.83429c.8613-.22227 1.7481-.32986 2.6375-.32.4652-.0011.9302.02179 1.393.06857v-.01429l-.3368-1.48285c-.137-.62858-.5709-1.677149-1.8782-1.677149-1.3074 0-1.8155 1.088569-1.8155 2.108569z"/><path d="m126.909 35.3457h-5.281l-2.603-10.3314h-14.638l-2.555 10.3314h-5.2805l6.8105-25.0914c.788-2.86573 2.589-4.82573 5.221-5.68287l.471-1.97143c.285-1.08572.856-2.5171448 2.657-2.5171448 1.802 0 2.375 1.4285748 2.655 2.5085748l.465 1.98c2.626.85714 4.428 2.82571 5.218 5.68857zm-4.582-.9h3.403l-6.548-23.9543c-.648-2.3514-2.053-4.01997-4.085-4.85712l4.047 16.00282h-14.814l3.996-16.0171c-2.035.85714-3.44 2.51714-4.087 4.8571l-6.5029 23.9686h3.4029l2.554-10.3314h16.022zm-16.841-13.7143h12.497l-3.894-15.45712c-1.56-.39716-3.195-.39716-4.755 0zm4.096-16.46855v.03429c1.406-.28858 2.856-.28858 4.262 0v-.03714l-.349-1.46572c-.339-1.31143-.839-1.825711-1.781-1.825711s-1.441.514291-1.784 1.834291l-.348 1.45714z"/></g></svg>

<svg width="127" height="36" viewBox="0 0 127 36" fill="none" xmlns="http://www.w3.org/2000/svg">
<g clip-path="url(#clip0)">
<path d="M19.7016 35.9257C19.0388 35.945 18.3938 35.7098 17.8986 35.2683C17.4035 34.8269 17.0957 34.2126 17.0384 33.5514L16.7387 31.2C13.8843 30.3857 12.2144 28.2714 11.7806 24.9143L9.21156 5.10285C8.66048 5.01408 8.10267 4.97393 7.54457 4.98285C6.7185 4.97608 5.8954 5.08279 5.09831 5.29999V35.3457H0.057373V11.1943C0.057373 7.91713 1.52741 5.60285 4.20487 4.63999V3.08285C4.20487 1.28285 5.29812 0.0742754 6.9223 0.0742754C8.54648 0.0742754 9.56551 1.0857 9.82812 2.93142L10.0279 4.37428C12.9594 5.19428 14.6721 7.55142 15.1802 11.3771L17.5551 30.4743C18.974 30.7486 20.4322 30.7486 21.851 30.4743L24.2259 11.38C24.7226 7.55142 26.4552 5.19428 29.3782 4.3657L29.578 2.92285C29.8406 1.0857 30.8739 0.0657043 32.4838 0.0657043C34.0937 0.0657043 35.2012 1.27428 35.2012 3.07428V4.63142C37.8787 5.59428 39.3487 7.90856 39.3487 11.1857V35.3371H34.3021V5.29713C33.505 5.07993 32.6819 4.97322 31.8558 4.97999C31.2977 4.97107 30.7399 5.01122 30.1888 5.09999L27.6198 24.9143C27.1945 28.2114 25.4847 30.3771 22.6617 31.2L22.3791 33.5543C22.335 34.2229 22.029 34.8471 21.5276 35.2912C21.0263 35.7353 20.3701 35.9633 19.7016 35.9257ZM17.6721 31.4286L17.9319 33.4543C17.9591 33.8985 18.1602 34.314 18.4915 34.6109C18.8227 34.9077 19.2575 35.0619 19.7016 35.04C19.9226 35.0559 20.1444 35.0272 20.3541 34.9557C20.5638 34.8842 20.757 34.7713 20.9223 34.6237C21.0876 34.4761 21.2216 34.2968 21.3164 34.0964C21.4112 33.896 21.4649 33.6787 21.4742 33.4571L21.734 31.4286C20.389 31.6495 19.0171 31.6495 17.6721 31.4286ZM35.2012 34.46H38.4496V11.1943C38.4496 8.41713 37.3306 6.49999 35.2012 5.6057V34.46ZM0.947958 34.46H4.20487V5.6057C2.07832 6.49999 0.970794 8.41713 0.970794 11.1943L0.947958 34.46ZM10.1564 5.34856L12.674 24.7971C13.0337 27.6114 14.361 29.4314 16.616 30.2257L14.2896 11.4886C13.8614 8.1857 12.5056 6.16856 10.1564 5.34856ZM29.2497 5.34856C26.9005 6.16856 25.539 8.18571 25.1165 11.4914L22.7901 30.2143C25.048 29.42 26.3725 27.6 26.7321 24.7857L29.2497 5.34856ZM5.10402 4.35428C5.90472 4.15939 6.72626 4.06343 7.55028 4.06856C8.06558 4.06312 8.58063 4.09367 9.09167 4.15999L8.93754 3.03713C8.74058 1.65999 8.06122 0.962847 6.9223 0.962847C5.78338 0.962847 5.10402 1.77142 5.10402 3.07142V4.35428ZM31.8558 4.06856C32.6798 4.06343 33.5014 4.15939 34.3021 4.35428V3.08285C34.3021 1.78285 33.6056 0.974276 32.4838 0.974276C31.362 0.974276 30.6655 1.67142 30.4686 3.04856L30.3144 4.17142C30.8255 4.10509 31.3405 4.07454 31.8558 4.07999V4.06856Z" fill="#2D2D2D"/>
<path d="M53.264 35.3457H48.3115V0.654266H53.264V35.3457ZM49.2107 34.4457H52.3648V1.55427H49.2107V34.4457Z" fill="#2D2D2D"/>
<path d="M85.3935 35.9257C83.2441 35.9257 82.7532 33.9629 82.5933 33.3171L82.2222 31.6714C79.0053 31.1 77.0414 29.0229 76.2279 25.34L71.5666 5.07714C71.0335 5.01031 70.4968 4.97786 69.9595 4.97999C69.0674 4.96552 68.1782 5.08593 67.322 5.33714V35.3371H62.2754V11.0514C62.2754 7.90857 63.7026 5.72285 66.4229 4.7V3.08285C66.4229 1.28285 67.5133 0.0742798 69.1375 0.0742798C70.539 0.0742798 71.5694 0.965708 71.8949 2.45714L72.3088 4.28571C75.4486 4.85714 77.3326 6.87428 78.2089 10.6143L82.9615 30.88C83.4965 30.9467 84.0352 30.9792 84.5743 30.9771C85.4628 30.984 86.3484 30.8755 87.2089 30.6543V0.654281H92.2556V25.7143C92.2556 28.2857 90.7513 30.3029 88.1081 31.2943V32.8571C88.1081 34.7543 87.0691 35.9257 85.3935 35.9257ZM83.1785 31.8143L83.4639 33.1086C83.8036 34.4686 84.3631 35.0257 85.3907 35.0257C86.5324 35.0257 87.2061 34.24 87.2061 32.8686V31.5771C86.342 31.775 85.4578 31.8709 84.5714 31.8629C84.1062 31.8639 83.6413 31.8411 83.1785 31.7943V31.8086V31.8143ZM63.1745 34.4457H66.4229V5.66571C64.2649 6.6 63.1745 8.40857 63.1745 11.0486V34.4457ZM72.5285 5.24571L77.0956 25.14C77.8035 28.3257 79.3792 30.1114 81.9939 30.7086L77.3354 10.8143C76.5761 7.58285 75.0833 5.83714 72.5285 5.24571ZM88.1081 1.55428V30.3371C90.2089 29.4457 91.3564 27.8257 91.3564 25.7257V1.55428H88.1081ZM67.322 4.38857C68.1833 4.1663 69.0701 4.05871 69.9595 4.06857C70.4247 4.06747 70.8897 4.09036 71.3525 4.13714V4.12285L71.0157 2.64C70.8787 2.01142 70.4448 0.962851 69.1375 0.962851C67.8301 0.962851 67.322 2.05142 67.322 3.07142V4.38857Z" fill="#2D2D2D"/>
<path d="M126.909 35.3457H121.628L119.025 25.0143H104.387L101.832 35.3457H96.5515L103.362 10.2543C104.15 7.38857 105.951 5.42857 108.583 4.57143L109.054 2.6C109.339 1.51428 109.91 0.0828552 111.711 0.0828552C113.513 0.0828552 114.086 1.51143 114.366 2.59143L114.831 4.57143C117.457 5.42857 119.259 7.39714 120.049 10.26L126.909 35.3457ZM122.327 34.4457H125.73L119.182 10.4914C118.534 8.14 117.129 6.47143 115.097 5.63428L119.144 21.6371H104.33L108.326 5.62C106.291 6.47714 104.886 8.13714 104.239 10.4771L97.7361 34.4457H101.139L103.693 24.1143H119.715L122.327 34.4457ZM105.486 20.7314H117.983L114.089 5.27428C112.529 4.87712 110.894 4.87712 109.334 5.27428L105.486 20.7314ZM109.582 4.26285V4.29714C110.988 4.00856 112.438 4.00856 113.844 4.29714V4.26L113.495 2.79428C113.156 1.48285 112.656 0.968569 111.714 0.968569C110.772 0.968569 110.273 1.48286 109.93 2.80286L109.582 4.26V4.26285Z" fill="#2D2D2D"/>
</g>
<defs>
<clipPath id="clip0">
<rect width="126.735" height="36" fill="white"/>
</clipPath>
</defs>
</svg>
